images/icons/keyboard-icon.svg

<svg width="66" height="46" viewBox="0 0 66 46" fill="none" xmlns="http://www.w3.org/2000/svg">
<path d="M58.5733 0C60.543 0 62.432 0.778611 63.8248 2.16455C65.2177 3.55048 66.0001 5.43021 66.0001 7.39022V38.6098C66.0001 40.5698 65.2177 42.4495 63.8248 43.8355C62.432 45.2214 60.543 46 58.5733 46H7.42698C6.45167 46 5.48591 45.8088 4.58484 45.4375C3.68378 45.0661 2.86505 44.5217 2.1754 43.8355C1.48575 43.1492 0.938692 42.3345 0.565458 41.4379C0.192224 40.5413 0.00012207 39.5803 0.00012207 38.6098V7.39022C0.00012207 5.43021 0.782592 3.55048 2.1754 2.16455C3.5682 0.778611 5.45725 0 7.42698 0H58.5733V0ZM58.5733 4.92681H7.42698C6.7704 4.92681 6.14072 5.18635 5.67645 5.64833C5.21218 6.11031 4.95136 6.73688 4.95136 7.39022V38.6098C4.95136 39.9696 6.06044 41.0732 7.42698 41.0732H58.5733C59.2298 41.0732 59.8595 40.8137 60.3238 40.3517C60.7881 39.8897 61.0489 39.2631 61.0489 38.6098V7.39022C61.0489 6.73688 60.7881 6.11031 60.3238 5.64833C59.8595 5.18635 59.2298 4.92681 58.5733 4.92681V4.92681ZM15.679 31.2031H50.3377C50.9649 31.2033 51.5687 31.4404 52.027 31.8665C52.4854 32.2926 52.7641 32.876 52.8068 33.4986C52.8496 34.1213 52.6532 34.737 52.2574 35.2211C51.8615 35.7053 51.2958 36.0219 50.6744 36.107L50.3377 36.13H15.679C15.0518 36.1298 14.448 35.8927 13.9897 35.4666C13.5314 35.0405 13.2527 34.4571 13.2099 33.8345C13.1672 33.2118 13.3636 32.5961 13.7594 32.112C14.1552 31.6278 14.721 31.3112 15.3424 31.2261L15.679 31.2031H50.3377H15.679V31.2031ZM47.8621 19.7072C48.7375 19.7072 49.5771 20.0533 50.1961 20.6693C50.8151 21.2852 51.1629 22.1207 51.1629 22.9918C51.1629 23.8629 50.8151 24.6983 50.1961 25.3143C49.5771 25.9303 48.7375 26.2763 47.8621 26.2763C46.9867 26.2763 46.1471 25.9303 45.528 25.3143C44.909 24.6983 44.5613 23.8629 44.5613 22.9918C44.5613 22.1207 44.909 21.2852 45.528 20.6693C46.1471 20.0533 46.9867 19.7072 47.8621 19.7072ZM28.0736 19.7072C28.9491 19.7072 29.7887 20.0533 30.4077 20.6693C31.0267 21.2852 31.3745 22.1207 31.3745 22.9918C31.3745 23.8629 31.0267 24.6983 30.4077 25.3143C29.7887 25.9303 28.9491 26.2763 28.0736 26.2763C27.1982 26.2763 26.3586 25.9303 25.7396 25.3143C25.1206 24.6983 24.7728 23.8629 24.7728 22.9918C24.7728 22.1207 25.1206 21.2852 25.7396 20.6693C26.3586 20.0533 27.1982 19.7072 28.0736 19.7072V19.7072ZM18.1712 19.7072C19.0466 19.7072 19.8862 20.0533 20.5052 20.6693C21.1242 21.2852 21.472 22.1207 21.472 22.9918C21.472 23.8629 21.1242 24.6983 20.5052 25.3143C19.8862 25.9303 19.0466 26.2763 18.1712 26.2763C17.2957 26.2763 16.4562 25.9303 15.8371 25.3143C15.2181 24.6983 14.8703 23.8629 14.8703 22.9918C14.8703 22.1207 15.2181 21.2852 15.8371 20.6693C16.4562 20.0533 17.2957 19.7072 18.1712 19.7072ZM37.9761 19.7072C38.8515 19.7072 39.6911 20.0533 40.3102 20.6693C40.9292 21.2852 41.2769 22.1207 41.2769 22.9918C41.2769 23.8629 40.9292 24.6983 40.3102 25.3143C39.6911 25.9303 38.8515 26.2763 37.9761 26.2763C37.1007 26.2763 36.2611 25.9303 35.6421 25.3143C35.0231 24.6983 34.6753 23.8629 34.6753 22.9918C34.6753 22.1207 35.0231 21.2852 35.6421 20.6693C36.2611 20.0533 37.1007 19.7072 37.9761 19.7072V19.7072ZM13.2034 9.85362C14.0789 9.85362 14.9184 10.1997 15.5375 10.8156C16.1565 11.4316 16.5042 12.2671 16.5042 13.1382C16.5042 14.0093 16.1565 14.8447 15.5375 15.4607C14.9184 16.0767 14.0789 16.4227 13.2034 16.4227C12.328 16.4227 11.4884 16.0767 10.8694 15.4607C10.2504 14.8447 9.9026 14.0093 9.9026 13.1382C9.9026 12.2671 10.2504 11.4316 10.8694 10.8156C11.4884 10.1997 12.328 9.85362 13.2034 9.85362ZM23.0894 9.85362C23.9648 9.85362 24.8044 10.1997 25.4234 10.8156C26.0425 11.4316 26.3902 12.2671 26.3902 13.1382C26.3902 14.0093 26.0425 14.8447 25.4234 15.4607C24.8044 16.0767 23.9648 16.4227 23.0894 16.4227C22.214 16.4227 21.3744 16.0767 20.7554 15.4607C20.1363 14.8447 19.7886 14.0093 19.7886 13.1382C19.7886 12.2671 20.1363 11.4316 20.7554 10.8156C21.3744 10.1997 22.214 9.85362 23.0894 9.85362V9.85362ZM32.9919 9.85362C33.8673 9.85362 34.7069 10.1997 35.3259 10.8156C35.9449 11.4316 36.2927 12.2671 36.2927 13.1382C36.2927 14.0093 35.9449 14.8447 35.3259 15.4607C34.7069 16.0767 33.8673 16.4227 32.9919 16.4227C32.1164 16.4227 31.2769 16.0767 30.6578 15.4607C30.0388 14.8447 29.691 14.0093 29.691 13.1382C29.691 12.2671 30.0388 11.4316 30.6578 10.8156C31.2769 10.1997 32.1164 9.85362 32.9919 9.85362V9.85362ZM42.8943 9.85362C43.7698 9.85362 44.6094 10.1997 45.2284 10.8156C45.8474 11.4316 46.1952 12.2671 46.1952 13.1382C46.1952 14.0093 45.8474 14.8447 45.2284 15.4607C44.6094 16.0767 43.7698 16.4227 42.8943 16.4227C42.0189 16.4227 41.1793 16.0767 40.5603 15.4607C39.9413 14.8447 39.5935 14.0093 39.5935 13.1382C39.5935 12.2671 39.9413 11.4316 40.5603 10.8156C41.1793 10.1997 42.0189 9.85362 42.8943 9.85362V9.85362ZM52.7968 9.85362C53.6723 9.85362 54.5118 10.1997 55.1309 10.8156C55.7499 11.4316 56.0976 12.2671 56.0976 13.1382C56.0976 14.0093 55.7499 14.8447 55.1309 15.4607C54.5118 16.0767 53.6723 16.4227 52.7968 16.4227C51.9214 16.4227 51.0818 16.0767 50.4628 15.4607C49.8438 14.8447 49.496 14.0093 49.496 13.1382C49.496 12.2671 49.8438 11.4316 50.4628 10.8156C51.0818 10.1997 51.9214 9.85362 52.7968 9.85362Z" fill="#EC7979"/>
</svg>

<svg xmlns="http://www.w3.org/2000/svg" width="66" height="46" fill="none"><path fill="#EC7979" d="M58.573 0c1.97 0 3.859.779 5.252 2.165A7.371 7.371 0 0 1 66 7.39v31.22c0 1.96-.782 3.84-2.175 5.226A7.446 7.446 0 0 1 58.573 46H7.427a7.46 7.46 0 0 1-5.252-2.164A7.358 7.358 0 0 1 0 38.61V7.39c0-1.96.783-3.84 2.175-5.225A7.446 7.446 0 0 1 7.427 0h51.146Zm0 4.927H7.427c-.657 0-1.286.26-1.75.721A2.457 2.457 0 0 0 4.95 7.39v31.22a2.47 2.47 0 0 0 2.476 2.463h51.146c.657 0 1.286-.26 1.75-.721a2.457 2.457 0 0 0 .726-1.742V7.39c0-.653-.26-1.28-.725-1.742a2.482 2.482 0 0 0-1.75-.721ZM15.68 31.203h34.659c.627 0 1.23.237 1.689.663a2.458 2.458 0 0 1-1.353 4.241l-.336.023H15.679a2.482 2.482 0 0 1-1.69-.663 2.459 2.459 0 0 1-.23-3.355c.396-.484.962-.8 1.583-.886l.337-.023h34.659-34.659Zm32.183-11.496c.875 0 1.715.346 2.334.962a3.276 3.276 0 0 1 0 4.645 3.309 3.309 0 0 1-4.668 0 3.276 3.276 0 0 1 0-4.645 3.31 3.31 0 0 1 2.334-.962Zm-19.788 0a3.31 3.31 0 0 1 2.334.962 3.276 3.276 0 0 1 0 4.645 3.309 3.309 0 0 1-4.668 0 3.276 3.276 0 0 1 0-4.645 3.309 3.309 0 0 1 2.334-.962Zm-9.903 0c.876 0 1.715.346 2.334.962a3.276 3.276 0 0 1 0 4.645 3.309 3.309 0 0 1-4.668 0 3.276 3.276 0 0 1 0-4.645 3.31 3.31 0 0 1 2.334-.962Zm19.805 0a3.31 3.31 0 0 1 2.334.962 3.276 3.276 0 0 1 0 4.645 3.31 3.31 0 0 1-4.668 0 3.276 3.276 0 0 1 0-4.645 3.309 3.309 0 0 1 2.334-.962ZM13.203 9.854a3.31 3.31 0 0 1 2.335.962 3.277 3.277 0 0 1 0 4.645 3.31 3.31 0 0 1-4.669 0 3.276 3.276 0 0 1 0-4.645 3.31 3.31 0 0 1 2.334-.962Zm9.886 0a3.31 3.31 0 0 1 2.334.962 3.276 3.276 0 0 1 0 4.645 3.309 3.309 0 0 1-4.668 0 3.276 3.276 0 0 1 0-4.645 3.31 3.31 0 0 1 2.334-.962Zm9.903 0a3.31 3.31 0 0 1 2.334.962 3.277 3.277 0 0 1 0 4.645 3.309 3.309 0 0 1-4.668 0 3.276 3.276 0 0 1 0-4.645 3.31 3.31 0 0 1 2.334-.962Zm9.902 0a3.31 3.31 0 0 1 2.334.962 3.277 3.277 0 0 1 0 4.645 3.309 3.309 0 0 1-4.668 0 3.276 3.276 0 0 1 0-4.645 3.31 3.31 0 0 1 2.334-.962Zm9.903 0a3.31 3.31 0 0 1 2.334.962 3.277 3.277 0 0 1 0 4.645 3.31 3.31 0 0 1-4.668 0 3.276 3.276 0 0 1 0-4.645 3.31 3.31 0 0 1 2.334-.962Z"/></svg>
